X: 20490
T: John Kelly's Favourite
R: reel
M: 4/4
K: Gmajor
G2GF GABG|AGEF GABc|d2Bd ~g3d|edBe dBAB|
G2GF GABG|AGEF GABc|d2Bd GdBG|1 A(G{A}G)F G2c/B/A:|2 A(G{A}G)F GABd||
e3g edBc|d2de dBAB|~c3A ~B3G|A2AB AGEF|
G2GF GABG|AGEF GABc|d2Bd gdBG|1 A(G{A}G)F GABd:|2 A(G{A}G)F G4||

